svg/emoji_u1f913.svg

<svg width="128" height="128" viewBox="0 0 128 128" fill="none" xmlns="http://www.w3.org/2000/svg">
<path d="M63.6001 118.8C35.7001 118.8 5.6001 101.3 5.6001 62.9C5.6001 24.5 35.7001 7 63.6001 7C79.1001 7 93.4001 12.1 104 21.4C115.5 31.6 121.6 46 121.6 62.9C121.6 79.8 115.5 94.1 104 104.3C93.4001 113.6 79.0001 118.8 63.6001 118.8Z" fill="url(#paint0_radial_201_9704)" style=""/>
<path d="M111.49 29.6699C116.82 38.2699 119.6 48.5099 119.6 59.8999C119.6 76.7999 113.5 91.0999 102 101.3C91.4002 110.6 77.0002 115.8 61.6002 115.8C43.5402 115.8 24.6002 108.45 13.4202 92.8599C24.1802 110.52 44.4202 118.8 63.6002 118.8C79.0002 118.8 93.4002 113.6 104 104.3C115.5 94.0999 121.6 79.7999 121.6 62.8999C121.6 50.1599 118.13 38.8399 111.49 29.6699Z" fill="#EB8F00" style="fill:#EB8F00;fill:color(display-p3 0.9216 0.5608 0.0000);fill-opacity:1;"/>
<path d="M64.4313 88.8335C55.3613 88.9035 46.7013 85.0935 40.6313 78.3535C40.1713 77.8235 40.0613 77.0735 40.3513 76.4335C40.6413 75.7835 41.2813 75.3635 41.9913 75.3535C42.3113 75.3535 42.6313 75.4435 42.9113 75.6035C47.7313 78.3735 55.7913 81.8135 64.4313 81.8135H64.5713C73.2013 81.8135 81.2713 78.3735 86.0813 75.6035C86.3613 75.4435 86.6813 75.3535 87.0013 75.3535C87.7113 75.3635 88.3513 75.7835 88.6413 76.4335C88.9413 77.0735 88.8313 77.8235 88.3613 78.3535C82.2913 85.0935 73.6113 88.9135 64.5413 88.8335" fill="#422B0D" style="fill:#422B0D;fill:color(display-p3 0.2588 0.1686 0.0510);fill-opacity:1;"/>
<path d="M125.75 33.3299C125.75 33.3299 124.72 31.5499 105.59 29.7699C80.1199 27.3999 70.9799 34.4799 69.2599 36.0799L69.0799 36.0699C67.1699 35.9499 65.3599 35.8299 63.3599 35.8299C63.3299 35.8299 63.2999 35.8299 63.2699 35.8299C62.2899 35.8399 60.3399 35.9399 58.6799 36.0399C56.8399 34.3499 47.6399 27.4199 22.3999 29.7699C3.27988 31.5499 2.24988 33.3299 2.24988 33.3299L2.12988 40.5499C2.12988 40.5499 4.97988 41.3599 6.82988 43.6499C8.66988 45.9099 9.52988 58.5699 12.5199 64.5199C17.1499 73.7599 40.1699 71.4199 40.1699 71.4199C40.1699 71.4199 49.5599 72.1599 54.1399 64.2499C58.2899 57.0999 59.8299 47.0799 60.0799 45.2499C61.0299 44.6999 62.2699 44.2699 63.8499 44.2499C65.6199 44.2699 66.9699 44.8099 67.9599 45.4499C68.2899 47.7099 69.8599 57.3299 73.8699 64.2399C78.4499 72.1399 87.8399 71.4099 87.8399 71.4099C87.8399 71.4099 110.86 73.7499 115.49 64.5099C118.48 58.5499 119.34 45.8999 121.18 43.6399C123.02 41.3499 125.88 40.5399 125.88 40.5399L125.75 33.3299ZM52.3499 53.2499C50.5299 61.6899 48.2399 67.4399 32.6299 66.5499C22.5799 65.9799 15.5899 65.9999 13.9799 51.3399C12.9899 42.2299 14.0899 38.7899 14.8399 37.6899C15.5799 36.5999 18.2699 33.4399 33.8199 33.9899C49.3699 34.5399 51.5999 38.0299 52.5099 39.6099C52.5499 39.6699 52.5799 39.7399 52.6199 39.8099L53.2799 41.9899C53.6499 44.1599 53.5699 47.6399 52.3499 53.2499ZM114.02 51.3399C112.42 65.9999 105.43 65.9799 95.3799 66.5499C79.7699 67.4399 77.4799 61.6899 75.6599 53.2499C73.8299 44.8299 74.5699 41.1799 75.4899 39.6099C76.3999 38.0299 78.6299 34.5299 94.1799 33.9899C109.74 33.4399 112.42 36.5999 113.16 37.6899C113.9 38.7899 115.01 42.2299 114.02 51.3399Z" fill="#212121" style="fill:#212121;fill:color(display-p3 0.1294 0.1294 0.1294);fill-opacity:1;"/>
<path d="M89.6299 45.8702C88.5999 45.1502 87.0499 45.3802 86.0499 46.8202C85.0499 48.2702 85.3799 49.7902 86.4099 50.5102C87.4399 51.2302 88.9899 51.0002 89.9899 49.5602C90.9999 48.1102 90.6699 46.5902 89.6299 45.8702Z" fill="#896024" style="fill:#896024;fill:color(display-p3 0.5373 0.3765 0.1412);fill-opacity:1;"/>
<path d="M87.4888 41.9399C83.2988 41.9399 79.4888 45.4799 79.4888 51.3599C79.4888 57.2399 83.2988 60.7799 87.4888 60.7799C91.6788 60.7799 95.4888 57.2399 95.4888 51.3599C95.4888 45.4799 91.6788 41.9399 87.4888 41.9399Z" fill="#35220B" style="fill:#35220B;fill:color(display-p3 0.2078 0.1333 0.0431);fill-opacity:1;"/>
<path d="M87.0986 45.8702C86.0686 45.1502 84.5186 45.3802 83.5186 46.8202C82.5186 48.2702 82.8486 49.7902 83.8786 50.5102C84.9086 51.2302 86.4586 51.0002 87.4586 49.5602C88.4686 48.1102 88.1386 46.5902 87.0986 45.8702Z" fill="#896024" style="fill:#896024;fill:color(display-p3 0.5373 0.3765 0.1412);fill-opacity:1;"/>
<path d="M39.7114 41.9399C35.5214 41.9399 31.7114 45.4799 31.7114 51.3599C31.7114 57.2399 35.5214 60.7799 39.7114 60.7799C43.9014 60.7799 47.7114 57.2399 47.7114 51.3599C47.7114 45.4799 43.9014 41.9399 39.7114 41.9399Z" fill="#35220B" style="fill:#35220B;fill:color(display-p3 0.2078 0.1333 0.0431);fill-opacity:1;"/>
<path d="M39.3215 45.8697C38.2915 45.1497 36.7415 45.3797 35.7415 46.8197C34.7415 48.2697 35.0715 49.7897 36.1015 50.5097C37.1315 51.2297 38.6815 50.9997 39.6815 49.5597C40.6815 48.1097 40.3515 46.5897 39.3215 45.8697Z" fill="#896024" style="fill:#896024;fill:color(display-p3 0.5373 0.3765 0.1412);fill-opacity:1;"/>
<path d="M54.1038 80.313C57.316 81.2136 60.8231 81.8136 64.4313 81.8136H64.5713C68.1761 81.8136 71.6832 81.2134 74.8958 80.3125V87.4302C74.8958 91.2962 71.7617 94.4302 67.8958 94.4302H61.1038C57.2378 94.4302 54.1038 91.2962 54.1038 87.4302V80.313Z" fill="white" style="fill:white;fill-opacity:1;"/>
<path fill-rule="evenodd" clip-rule="evenodd" d="M62.8999 94.4305V81.7783C63.408 81.8017 63.9187 81.8138 64.4314 81.8138H64.5714C65.0831 81.8138 65.5927 81.8017 66.0999 81.7784V94.4305H62.8999Z" fill="#B3B3B3" style="fill:#B3B3B3;fill:color(display-p3 0.7020 0.7020 0.7020);fill-opacity:1;"/>
<defs>
<radialGradient id="paint0_radial_201_9704" cx="0" cy="0" r="1" gradientUnits="userSpaceOnUse" gradientTransform="translate(63.6001 62.8999) scale(56.9597 56.9597)">
<stop offset="0.5" stop-color="#FDE030" style="stop-color:#FDE030;stop-color:color(display-p3 0.9922 0.8784 0.1882);stop-opacity:1;"/>
<stop offset="0.9188" stop-color="#F7C02B" style="stop-color:#F7C02B;stop-color:color(display-p3 0.9686 0.7529 0.1686);stop-opacity:1;"/>
<stop offset="1" stop-color="#F4A223" style="stop-color:#F4A223;stop-color:color(display-p3 0.9569 0.6353 0.1373);stop-opacity:1;"/>
</radialGradient>
</defs>
</svg>

<?xml version="1.0" encoding="utf-8"?>
<!-- Generator: Adobe Illustrator 24.1.2, SVG Export Plug-In . SVG Version: 6.00 Build 0)  -->
<svg version="1.1" id="Layer_1" xmlns="http://www.w3.org/2000/svg" xmlns:xlink="http://www.w3.org/1999/xlink" x="0px" y="0px"
	 viewBox="0 0 128 128" style="enable-background:new 0 0 128 128;" xml:space="preserve">
<radialGradient id="face_1_" cx="63.6" cy="-2088.8999" r="56.9597" gradientTransform="matrix(1 0 0 -1 0 -2026)" gradientUnits="userSpaceOnUse">
	<stop  offset="0.5" style="stop-color:#FDE030"/>
	<stop  offset="0.9188" style="stop-color:#F7C02B"/>
	<stop  offset="1" style="stop-color:#F4A223"/>
</radialGradient>
<path id="face_97_" style="fill:url(#face_1_);" d="M63.6,118.8c-27.9,0-58-17.5-58-55.9S35.7,7,63.6,7c15.5,0,29.8,5.1,40.4,14.4
	c11.5,10.2,17.6,24.6,17.6,41.5s-6.1,31.2-17.6,41.4C93.4,113.6,79,118.8,63.6,118.8z"/>
<g>
	<g>
		<path style="fill:#35220B;" d="M102.07,71.62c-1.33-2.46-4.14-3.53-7.14-2.6c-8.96,2.8-20.47,4.42-31.59,4.43
			c-11.12-0.01-22.63-1.63-31.59-4.43c-2.99-0.93-5.81,0.14-7.14,2.6c-1.36,2.52-0.37,5.42,0.77,7.94
			c6.42,14.1,20.57,22.54,37.87,22.59c0.05,0,0.11,0,0.16,0c17.3-0.05,31.45-8.49,37.87-22.59
			C102.44,77.04,103.43,74.13,102.07,71.62z"/>
		<g>
			<path style="fill:#35220B;" d="M63.42,100.89c-0.03,0-0.05,0-0.08,0c-0.03,0-0.05,0-0.08,0H63.42z"/>
			<path style="fill:#35220B;" d="M63.49,74.7c-0.05,0-0.1,0-0.15,0c-0.05,0-0.1,0-0.15,0H63.49z"/>
		</g>
		<g>
			<path style="fill:#35220B;" d="M63.49,74.7c-0.05,0-0.1,0-0.15,0c-0.05,0-0.1,0-0.15,0H63.49z"/>
			<path style="fill:#35220B;" d="M63.42,100.89c-0.03,0-0.05,0-0.08,0c-0.03,0-0.05,0-0.08,0H63.42z"/>
		</g>
		<g>
			<path style="fill:none;" d="M78.22,97.17c9.37-3.29,16.75-9.76,20.8-18.66c1.26-2.77,1.51-4.48,0.85-5.71
				c-0.76-1.42-2.35-1.98-4.19-1.4c-9.14,2.86-20.84,4.52-32.16,4.55c-0.01,0-0.02,0-0.03,0H63.2c-0.01,0-0.02,0-0.03,0
				c-11.31-0.03-23.01-1.68-32.16-4.55c-0.48-0.15-0.95-0.23-1.38-0.23c-1.24,0-2.24,0.58-2.81,1.62c-0.67,1.24-0.41,2.94,0.85,5.71
				c3.98,8.73,11.17,15.12,20.29,18.47c4.3-3.41,9.37-5.22,15.46-5.22C69.53,91.76,74.08,93.7,78.22,97.17z"/>
		</g>
		<path style="fill:#ED7770;" d="M79.35,98.14c-0.37-0.34-0.75-0.65-1.13-0.97c-4.15-3.47-8.69-5.41-14.8-5.41
			c-6.09,0-11.16,1.8-15.46,5.22c-0.39,0.31-0.78,0.61-1.16,0.94c-0.31,0.35-0.57,0.68-0.8,1c5.21,2.07,11.03,3.2,17.27,3.22
			c0.05,0,0.11,0,0.16,0c5.96-0.02,11.54-1.05,16.57-2.95C79.82,98.85,79.61,98.51,79.35,98.14z"/>
		<g>
			<path style="fill:#FFFFFF;" d="M94.93,69.02c-8.96,2.8-20.47,4.42-31.59,4.43c-11.12-0.01-22.63-1.63-31.59-4.43
				c-2.99-0.93-5.81,0.14-7.14,2.6c-0.21,0.39-0.35,0.79-0.45,1.2c0.33,0.17,0.71,0.34,1.16,0.52c12.1,6.17,25.16,8.93,38.8,8.93
				c13.09,0,25.64-2.55,37.33-8.21c0.47-0.2,0.86-0.39,1.21-0.57c-0.09-0.64-0.27-1.26-0.6-1.87
				C100.74,69.16,97.93,68.08,94.93,69.02z"/>
		</g>
	</g>
</g>
<path style="fill:#EB8F00;" d="M62.84,75.06C62.84,75.06,62.84,75.06,62.84,75.06C62.84,75.06,62.84,75.06,62.84,75.06
	c8.17,0.14,14.82-1.1,22.9-2.64c2.02-0.39,4.03-0.84,6.02-1.37l1.49-0.41c0.45-0.12,0.79-0.2,1.19-0.23
	c0.76-0.07,1.5,0.04,2.14,0.31c1.27,0.53,3.08,2.13,3.53,3.41c1.19,3.4-0.74,9.34-0.26,8.35c0.02-0.03,1.23-2.07,1.24-2.1
	c0.81-1.95,1.87-4.16,1.61-6.83c-0.27-2.69-2.3-5.16-4.83-6.09c-1.25-0.47-2.58-0.58-3.82-0.41c-0.61,0.07-1.26,0.25-1.77,0.42
	l-1.41,0.46c-1.89,0.58-3.81,1.1-5.75,1.56c-7.76,1.81-14.16,2.76-22.18,2.96c0,0,0,0,0,0s0,0,0,0H62.7c0,0,0,0,0,0s0,0,0,0
	c-8.02-0.19-14.03-1.15-21.79-2.96c-1.94-0.46-3.86-0.98-5.75-1.56l-1.41-0.46c-0.52-0.17-1.16-0.35-1.77-0.42
	c-1.24-0.17-2.58-0.06-3.82,0.41c-2.53,0.93-4.31,3.39-4.67,6.07c-0.58,4.38,3.39,9.09,3.41,9.12c0.48,0.99-2.01-5.14-0.82-8.54
	c0.45-1.28,2.1-2.86,3.36-3.39c0.64-0.27,1.37-0.39,2.14-0.31c0.4,0.03,0.73,0.11,1.19,0.23l1.49,0.41c2,0.53,4.01,0.98,6.02,1.37
	c8.07,1.53,14.16,2.77,22.33,2.64"/>
<g id="nerd-face_2_">
	<path id="prop_12_" style="fill:#35220B;" d="M125.75,33.33c0,0-1.03-1.78-20.16-3.56c-25.47-2.37-34.61,4.71-36.33,6.31
		l-0.18-0.01c-1.91-0.12-3.72-0.24-5.72-0.24c-0.03,0-0.06,0-0.09,0c-0.98,0.01-2.93,0.11-4.59,0.21
		c-1.84-1.69-11.04-8.62-36.28-6.27C3.28,31.55,2.25,33.33,2.25,33.33l-0.12,7.22c0,0,2.85,0.81,4.7,3.1
		c1.84,2.26,2.7,14.92,5.69,20.87c4.63,9.24,27.65,6.9,27.65,6.9s9.39,0.74,13.97-7.17c4.15-7.15,5.69-17.17,5.94-19
		c0.95-0.55,2.19-0.98,3.77-1c1.77,0.02,3.12,0.56,4.11,1.2c0.33,2.26,1.9,11.88,5.91,18.79c4.58,7.9,13.97,7.17,13.97,7.17
		s23.02,2.34,27.65-6.9c2.99-5.96,3.85-18.61,5.69-20.87c1.84-2.29,4.7-3.1,4.7-3.1L125.75,33.33z M52.35,53.25
		c-1.82,8.44-4.11,14.19-19.72,13.3C22.58,65.98,15.59,66,13.98,51.34c-0.99-9.11,0.11-12.55,0.86-13.65
		c0.74-1.09,3.43-4.25,18.98-3.7c15.55,0.55,17.78,4.04,18.69,5.62c0.04,0.06,0.07,0.13,0.11,0.2l0.66,2.18
		C53.65,44.16,53.57,47.64,52.35,53.25z M114.02,51.34c-1.6,14.66-8.59,14.64-18.64,15.21c-15.61,0.89-17.9-4.86-19.72-13.3
		c-1.83-8.42-1.09-12.07-0.17-13.64c0.91-1.58,3.14-5.08,18.69-5.62c15.56-0.55,18.24,2.61,18.98,3.7
		C113.9,38.79,115.01,42.23,114.02,51.34z"/>
</g>
<path style="fill:#35220B;" d="M90.02,41.94L90.02,41.94c-4.19,0-8,3.54-8,9.42s3.81,9.42,8,9.42l0,0c4.19,0,8-3.54,8-9.42
	S94.21,41.94,90.02,41.94z"/>
<g>
	<g id="peepers_125_">
		<path style="fill:#896024;" d="M89.63,45.87L89.63,45.87c-1.03-0.72-2.58-0.49-3.58,0.95c-1,1.45-0.67,2.97,0.36,3.69l0,0
			c1.03,0.72,2.58,0.49,3.58-0.95C91,48.11,90.67,46.59,89.63,45.87z"/>
	</g>
</g>
<path style="fill:#35220B;" d="M90.02,41.94L90.02,41.94c-4.19,0-8,3.54-8,9.42s3.81,9.42,8,9.42l0,0c4.19,0,8-3.54,8-9.42
	S94.21,41.94,90.02,41.94z"/>
<g>
	<g id="peepers_127_">
		<path style="fill:#896024;" d="M89.63,45.87L89.63,45.87c-1.03-0.72-2.58-0.49-3.58,0.95c-1,1.45-0.67,2.97,0.36,3.69l0,0
			c1.03,0.72,2.58,0.49,3.58-0.95C91,48.11,90.67,46.59,89.63,45.87z"/>
	</g>
</g>
<g>
	<path style="fill:#35220B;" d="M37.67,41.94L37.67,41.94c-4.19,0-8,3.54-8,9.42s3.81,9.42,8,9.42l0,0c4.19,0,8-3.54,8-9.42
		S41.86,41.94,37.67,41.94z"/>
	<g>
		<g id="peepers_126_">
			<path style="fill:#896024;" d="M37.28,45.87L37.28,45.87c-1.03-0.72-2.58-0.49-3.58,0.95c-1,1.45-0.67,2.97,0.36,3.69l0,0
				c1.03,0.72,2.58,0.49,3.58-0.95C38.64,48.11,38.31,46.59,37.28,45.87z"/>
		</g>
	</g>
</g>
</svg>
